X:1
T:Title
%%score 1 { 2 | ( 3 4 ) }
L:1/8
M:3/4
K:Bb
V:1 treble nm="Fiddle"
V:2 treble nm="Grand Piano"
V:3 bass 
V:4 bass 
V:1
 z2 z2[Q:1/4=100] BA | c2 B2 AD | A2 G2 FG | A3 d cA |[M:2/4] F4 |[M:1/4] c=B |[M:3/4] d2 c2 AG | %7
 B2 A2 FG | A3 d cA |[M:2/4] F4 |[M:1/4] Bc |[M:3/4] d2 c2 BA | A2 G2 AB | c2 B2 AG |[M:2/4] F4 | %15
[M:1/4] GA |[M:3/4] c2 B2 cd | c2 G2 AB |[M:13/16] d/-d/-d-<dFc3/2F |[M:3/4] B6 |] %20
V:2
 z2 z2 [DF][DF] | [CDF]2 [B,DF]2 [DF][DF] | [A,DF]2 [G,DG]2 [DF][DF] | [A,EF]3 [EF] [EF][EF] | %4
[M:2/4] [A,EF]4 |[M:1/4] [EF][EF] |[M:3/4] [DF]2 [CEF]2 [EF][EF] | [B,EF]2 [A,EF]2 [EF][EF] | %8
 [A,EF]3 [EF] [EF][EF] |[M:2/4] [B,DF]4 |[M:1/4] DE |[M:3/4] [DF]2 [CD^F]2 [B,DG][A,CF] | %12
 [A,C^F]2 [B,DG]2 CD | [C=E]2 [B,DE]2 [A,CE][B,CE] |[M:2/4] [A,CF]4 |[M:1/4] [EF][EF] | %16
[M:3/4] [CEF]2 [B,DF]2 EF | [CEG]2[K:bass] [G,CE]2 [=E,A,_D=E][E,A,DE] | %18
[M:13/16][K:treble] [F,B,DF]/-[F,B,DF]/-[F,B,DF]-<[F,B,DF][DF][CEF]3/2[A,EF] |[M:3/4] [B,DF]6 |] %20
V:3
 z2 z2 B,A, | B,,,F,, B,,D, A,D, | C,,F,, B,,D, F,G, | C,F, F,,D CA, |[M:2/4] F,C, F,,2 | %5
[M:1/4] C=B, |[M:3/4] F,,F, F,F, A,G, | F,,F, F,F, F,G, | F,,F, F,D CA, |[M:2/4] F,D, B,,2 | %10
[M:1/4] B,C |[M:3/4] [B,,B,]2 [A,,A,]2 [G,,G,][D,,D,] | [D,,D,]2 G,,2 A,B, | C,2 C,2 z G, | %14
[M:2/4] F,2 F,,2 |[M:1/4] G,A, |[M:3/4] B,,,F,, B,,D, CD | C,,G,, C,E, =E,,E,, | %18
[M:13/16] F,,/-F,,/-F,,-<F,,F,F,,3/2F, |[M:3/4] B,,6 |] %20
V:4
 x6 | x6 | x6 | x6 |[M:2/4] x4 |[M:1/4] x2 |[M:3/4] x6 | x6 | x6 |[M:2/4] x4 |[M:1/4] x2 | %11
[M:3/4] x6 | x6 | z2 z2 C,2 |[M:2/4] x4 |[M:1/4] x2 |[M:3/4] x6 | x6 |[M:13/16] x13/2 | %19
[M:3/4] x6 |] %20

